content/pages/careers/perky-equipment.svg

<svg height="121" viewBox="0 0 122 121" width="122" xmlns="http://www.w3.org/2000/svg"><g fill="none" fill-rule="evenodd" transform="translate(-1 1)"><g stroke="#11100d" stroke-linecap="round" stroke-linejoin="round" stroke-width="2.5494"><path d="m95.7715425 48.8569318c-4.9276781-42.76067044-34.4965517-41.62431816-34.4965517-41.62431816s-29.5674713-1.13635228-34.4951494 41.62431816c0 0-3.7918161 40.8681477 34.4951494 40.8681477s34.4965517-40.8681477 34.4965517-40.8681477z"/><path d="m49.1023356 88.0785568.8722299 28.9692952 6.6637242 1.649318"/><path d="m32.0642644 75.5686182-3.988138 5.1673977 10.614 10.0538523 3.3290575-4.4405796"/><path d="m96.1769471 44.2201114 5.4451269-3.6103296-6.7955407-12.9261818-3.8507126 1.9568182"/><path d="m73.9627103 88.0785568.8722299 28.9692952 6.6637242 1.649318"/></g><path d="m46.0858506 30.9436591c9.8315172-21.59348865 38.0261379 5.1869659 49.691862-13.8081477.8063219-1.3138637-1.2634712-2.5145114-2.0669885-1.2048409-7.4111494 12.0665795-23.0551954 2.9743636-33.9174023 3.3713181-7.1755632.2627728-12.8071954 3.920625-15.7744597 10.4368296-.6324368 1.3879432 1.4303448 2.6025682 2.0669885 1.2048409" fill="#11100d"/><path d="m26.0218989 31.106075 12.3696781 1.8869318s.6674943 18.9923182-10.1442299 18.3200114c-12.0317241-.7505796-12.5533793-2.9645796-12.5533793-2.9645796s9.1233563-5.3826477 10.3279311-17.2423636" fill="#f7f7f7"/><path d="m26.0218989 31.106075 12.3696781 1.8869318s.6674943 18.9923182-10.1442299 18.3200114c-12.0317241-.7505796-12.5533793-2.9645796-12.5533793-2.9645796s9.1233563-5.3826477 10.3279311-17.2423636z" stroke="#11100d" stroke-linecap="round" stroke-linejoin="round" stroke-width="2.5494"/><path d="m87.1862483 62.9386148 12.1242758 4.6418522-6.869862 15.5567046-12.3837012-4.627875z" fill="#f7f7f7"/><path d="m87.1862483 62.9386148 12.1242758 4.6418522-6.869862 15.5567046-12.3837012-4.627875z" stroke="#11100d" stroke-linecap="round" stroke-linejoin="round" stroke-width="2.5494"/><path d="m42.8738851 79.5768807 11.9083218.9812045s2.7330805 5.857875-.8245517 15.2785568l-13.1858161-1.1153863s3.7525517-9.2236023 2.102046-15.144375" fill="#f7f7f7"/><path d="m42.8738851 79.5768807 11.9083218.9812045s2.7330805 5.857875-.8245517 15.2785568l-13.1858161-1.1153863s3.7525517-9.2236023 2.102046-15.144375z" stroke="#11100d" stroke-linecap="round" stroke-linejoin="round" stroke-width="2.5494"/><path d="m68.6955356.27291023-11.9083218.98120454s-2.7330805 5.857875.8245517 15.27855683l13.1858161-1.1153864s-3.7525517-9.22360225-2.102046-15.14437497" fill="#f7f7f7"/><path d="m68.6955356.27291023-11.9083218.98120454s-2.7330805 5.857875.8245517 15.27855683l13.1858161-1.1153864s-3.7525517-9.22360225-2.102046-15.14437497z" stroke="#11100d" stroke-linecap="round" stroke-linejoin="round" stroke-width="2.5494"/><path d="m83.9940552 38.2987795c0 1.3390228-1.0895862 2.4264546-2.4343908 2.4264546s-2.4343908-1.0874318-2.4343908-2.4264546c0-1.3404204 1.0895862-2.4264545 2.4343908-2.4264545s2.4343908 1.0860341 2.4343908 2.4264545" fill="#11100d"/><path d="m66.4030575 40.6452841c-.6899311 0-1.2508506-.5576932-1.2508506-1.2467727 0-.5255455-.4291035-.9546478-.9577701-.9546478-.5286667 0-.9577701.4291023-.9577701.9546478 0 .6890795-.5595173 1.2467727-1.2508506 1.2467727-.689931 0-1.2494483-.5576932-1.2494483-1.2467727 0-1.8995114 1.5509425-3.4467955 3.458069-3.4467955 1.9071264 0 3.4594712 1.5472841 3.4594712 3.4467955 0 .6890795-.5609195 1.2467727-1.2508505 1.2467727" fill="#11100d"/><path d="m74.1572092 49.8683273c-2.44 0-3.5646437-1.3096705-3.5646437-1.3096705s1.5004598-1.4019204 3.5646437-1.4019204 3.3781379 1.4019204 3.3781379 1.4019204-.9381379 1.3096705-3.3781379 1.3096705zm-7.456023-6.7216705c-.6618851 0-1.1611034.5898409-1.0657471 1.2439773.6043908 4.1652273 4.199885 7.364625 8.5470115 7.364625 4.3443218 0 7.9412184-3.1993977 8.5456092-7.364625.0953563-.6541364-.4038621-1.2439773-1.0657472-1.2439773z" fill="#11100d"/><path d="m5.85978621 57.7331989s16.46018389 12.9024204 36.43593099 0" stroke="#11100d" stroke-linecap="round" stroke-linejoin="round" stroke-width="2.5494"/><path d="m9.04034023 59.7246807-6.36082759 4.2099545" stroke="#11100d" stroke-linecap="round" stroke-linejoin="round" stroke-width="2.5494"/><path d="m117.995455 56.624242s-9.259379 7.257-22.3147814 5.44275" stroke="#11100d" stroke-linecap="round" stroke-linejoin="round" stroke-width="2.5494"/><path d="m114.815182 58.615025 6.360827 4.2099545" stroke="#11100d" stroke-linecap="round" stroke-linejoin="round" stroke-width="2.5494"/></g></svg>

<?xml version="1.0" encoding="UTF-8"?>
<svg width="122px" height="121px" viewBox="0 0 122 121" version="1.1" xmlns="http://www.w3.org/2000/svg" xmlns:xlink="http://www.w3.org/1999/xlink">
    <!-- Generator: Sketch 52.5 (67469) - http://www.bohemiancoding.com/sketch -->
    <title>perky-equipment</title>
    <desc>Created with Sketch.</desc>
    <defs>
        <polygon id="path-1" points="1.40229885 0.698863636 2.10344828 0.698863636 2.10344828 1.39772727 1.40229885 1.39772727"></polygon>
        <polygon id="path-3" points="1.40229885 0.698863636 2.10344828 0.698863636 2.10344828 1.39772727 1.40229885 1.39772727"></polygon>
        <polygon id="path-5" points="1.40229885 0.698863636 2.10344828 0.698863636 2.10344828 1.39772727 1.40229885 1.39772727"></polygon>
        <polygon id="path-7" points="1.40229885 0.698863636 2.10344828 0.698863636 2.10344828 1.39772727 1.40229885 1.39772727"></polygon>
        <polygon id="path-9" points="1.40229885 0.698863636 2.10344828 0.698863636 2.10344828 1.39772727 1.40229885 1.39772727"></polygon>
        <polygon id="path-11" points="1.40229885 0.698863636 2.10344828 0.698863636 2.10344828 1.39772727 1.40229885 1.39772727"></polygon>
        <polygon id="path-13" points="1.40229885 0.698863636 2.10344828 0.698863636 2.10344828 1.39772727 1.40229885 1.39772727"></polygon>
        <polygon id="path-15" points="1.40229885 0.698863636 2.10344828 0.698863636 2.10344828 1.39772727 1.40229885 1.39772727"></polygon>
    </defs>
    <g id="✔--Careers" stroke="none" stroke-width="1" fill="none" fill-rule="evenodd">
        <g id="Careers__vertical" transform="translate(-390.000000, -4543.000000)">
            <g id="perks" transform="translate(80.000000, 3930.000000)">
                <g id="equipment" transform="translate(309.000000, 614.000000)">
                    <g id="perky-equipment">
                        <path d="M95.7715425,48.8569318 C90.8438644,6.09626136 61.2749908,7.23261364 61.2749908,7.23261364 C61.2749908,7.23261364 31.7075195,6.09626136 26.7798414,48.8569318 C26.7798414,48.8569318 22.9880253,89.7250795 61.2749908,89.7250795 C99.5619563,89.7250795 95.7715425,48.8569318 95.7715425,48.8569318 Z" id="Stroke-1" stroke="#11100D" stroke-width="2.54939996" stroke-linecap="round" stroke-linejoin="round"></path>
                        <polyline id="Stroke-3" stroke="#11100D" stroke-width="2.54939996" stroke-linecap="round" stroke-linejoin="round" points="49.1023356 88.0785568 49.9745655 117.047852 56.6382897 118.69717"></polyline>
                        <polyline id="Stroke-5" stroke="#11100D" stroke-width="2.54939996" stroke-linecap="round" stroke-linejoin="round" points="32.0642644 75.5686182 28.0761264 80.7360159 38.6901264 90.7898682 42.0191839 86.3492886"></polyline>
                        <polyline id="Stroke-7" stroke="#11100D" stroke-width="2.54939996" stroke-linecap="round" stroke-linejoin="round" points="96.1769471 44.2201114 101.622074 40.6097818 94.8265333 27.6836 90.9758207 29.6404182"></polyline>
                        <polyline id="Stroke-9" stroke="#11100D" stroke-width="2.54939996" stroke-linecap="round" stroke-linejoin="round" points="73.9627103 88.0785568 74.8349402 117.047852 81.4986644 118.69717"></polyline>
                        <path d="M46.0858506,30.9436591 C55.9173678,9.35017045 84.1119885,36.130625 95.7777126,17.1355114 C96.5840345,15.8216477 94.5142414,14.621 93.7107241,15.9306705 C86.2995747,27.99725 70.6555287,18.9050341 59.7933218,19.3019886 C52.6177586,19.5647614 46.9861264,23.2226136 44.0188621,29.7388182 C43.3864253,31.1267614 45.4492069,32.3413864 46.0858506,30.9436591" id="Fill-11" fill="#11100D"></path>
                        <g id="Group-15" transform="translate(0.000000, 118.572074)">
                            <mask id="mask-2" fill="white">
                                <use xlink:href="#path-1"></use>
                            </mask>
                            <g id="Clip-14"></g>
                            <path d="" id="Fill-13" fill="#11100D" mask="url(#mask-2)"></path>
                        </g>
                        <g id="Group-18" transform="translate(0.000000, 118.572074)">
                            <mask id="mask-4" fill="white">
                                <use xlink:href="#path-3"></use>
                            </mask>
                            <g id="Clip-17"></g>
                            <path d="" id="Fill-16" fill="#11100D" mask="url(#mask-4)"></path>
                        </g>
                        <g id="Group-21" transform="translate(0.000000, 118.572074)">
                            <mask id="mask-6" fill="white">
                                <use xlink:href="#path-5"></use>
                            </mask>
                            <g id="Clip-20"></g>
                            <path d="" id="Fill-19" fill="#11100D" mask="url(#mask-6)"></path>
                        </g>
                        <g id="Group-24" transform="translate(0.000000, 118.572074)">
                            <mask id="mask-8" fill="white">
                                <use xlink:href="#path-7"></use>
                            </mask>
                            <g id="Clip-23"></g>
                            <path d="" id="Fill-22" fill="#11100D" mask="url(#mask-8)"></path>
                        </g>
                        <g id="Group-27" transform="translate(0.000000, 118.572074)">
                            <mask id="mask-10" fill="white">
                                <use xlink:href="#path-9"></use>
                            </mask>
                            <g id="Clip-26"></g>
                            <path d="" id="Fill-25" fill="#11100D" mask="url(#mask-10)"></path>
                        </g>
                        <g id="Group-30" transform="translate(0.000000, 118.572074)">
                            <mask id="mask-12" fill="white">
                                <use xlink:href="#path-11"></use>
                            </mask>
                            <g id="Clip-29"></g>
                            <path d="" id="Fill-28" fill="#11100D" mask="url(#mask-12)"></path>
                        </g>
                        <g id="Group-33" transform="translate(0.000000, 118.572074)">
                            <mask id="mask-14" fill="white">
                                <use xlink:href="#path-13"></use>
                            </mask>
                            <g id="Clip-32"></g>
                            <path d="" id="Fill-31" fill="#11100D" mask="url(#mask-14)"></path>
                        </g>
                        <g id="Group-36" transform="translate(0.000000, 118.572074)">
                            <mask id="mask-16" fill="white">
                                <use xlink:href="#path-15"></use>
                            </mask>
                            <g id="Clip-35"></g>
                            <path d="" id="Fill-34" fill="#11100D" mask="url(#mask-16)"></path>
                        </g>
                        <path d="M26.0218989,31.106075 L38.391577,32.9930068 C38.391577,32.9930068 39.0590713,51.985325 28.2473471,51.3130182 C16.215623,50.5624386 15.6939678,48.3484386 15.6939678,48.3484386 C15.6939678,48.3484386 24.8173241,42.9657909 26.0218989,31.106075" id="Fill-37" fill="#F7F7F7"></path>
                        <path d="M26.0218989,31.106075 L38.391577,32.9930068 C38.391577,32.9930068 39.0590713,51.985325 28.2473471,51.3130182 C16.215623,50.5624386 15.6939678,48.3484386 15.6939678,48.3484386 C15.6939678,48.3484386 24.8173241,42.9657909 26.0218989,31.106075 Z" id="Stroke-39" stroke="#11100D" stroke-width="2.54939996" stroke-linecap="round" stroke-linejoin="round"></path>
                        <polygon id="Fill-41" fill="#F7F7F7" points="87.1862483 62.9386148 99.3105241 67.580467 92.4406621 83.1371716 80.0569609 78.5092966"></polygon>
                        <polygon id="Stroke-43" stroke="#11100D" stroke-width="2.54939996" stroke-linecap="round" stroke-linejoin="round" points="87.1862483 62.9386148 99.3105241 67.580467 92.4406621 83.1371716 80.0569609 78.5092966"></polygon>
                        <path d="M42.8738851,79.5768807 L54.7822069,80.5580852 C54.7822069,80.5580852 57.5152874,86.4159602 53.9576552,95.836642 L40.7718391,94.7212557 C40.7718391,94.7212557 44.5243908,85.4976534 42.8738851,79.5768807" id="Fill-45" fill="#F7F7F7"></path>
                        <path d="M42.8738851,79.5768807 L54.7822069,80.5580852 C54.7822069,80.5580852 57.5152874,86.4159602 53.9576552,95.836642 L40.7718391,94.7212557 C40.7718391,94.7212557 44.5243908,85.4976534 42.8738851,79.5768807 Z" id="Stroke-47" stroke="#11100D" stroke-width="2.54939996" stroke-linecap="round" stroke-linejoin="round"></path>
                        <path d="M68.6955356,0.272910227 L56.7872138,1.25411477 C56.7872138,1.25411477 54.0541333,7.11198977 57.6117655,16.5326716 L70.7975816,15.4172852 C70.7975816,15.4172852 67.0450299,6.19368295 68.6955356,0.272910227" id="Fill-49" fill="#F7F7F7"></path>
                        <path d="M68.6955356,0.272910227 L56.7872138,1.25411477 C56.7872138,1.25411477 54.0541333,7.11198977 57.6117655,16.5326716 L70.7975816,15.4172852 C70.7975816,15.4172852 67.0450299,6.19368295 68.6955356,0.272910227 Z" id="Stroke-51" stroke="#11100D" stroke-width="2.54939996" stroke-linecap="round" stroke-linejoin="round"></path>
                        <path d="M83.9940552,38.2987795 C83.9940552,39.6378023 82.904469,40.7252341 81.5596644,40.7252341 C80.2148598,40.7252341 79.1252736,39.6378023 79.1252736,38.2987795 C79.1252736,36.9583591 80.2148598,35.872325 81.5596644,35.872325 C82.904469,35.872325 83.9940552,36.9583591 83.9940552,38.2987795" id="Fill-53" fill="#11100D"></path>
                        <path d="M66.4030575,40.6452841 C65.7131264,40.6452841 65.1522069,40.0875909 65.1522069,39.3985114 C65.1522069,38.8729659 64.7231034,38.4438636 64.1944368,38.4438636 C63.6657701,38.4438636 63.2366667,38.8729659 63.2366667,39.3985114 C63.2366667,40.0875909 62.6771494,40.6452841 61.9858161,40.6452841 C61.2958851,40.6452841 60.7363678,40.0875909 60.7363678,39.3985114 C60.7363678,37.499 62.2873103,35.9517159 64.1944368,35.9517159 C66.1015632,35.9517159 67.653908,37.499 67.653908,39.3985114 C67.653908,40.0875909 67.0929885,40.6452841 66.4030575,40.6452841" id="Fill-55" fill="#11100D"></path>
                        <path d="M74.1572092,49.8683273 C71.7172092,49.8683273 70.5925655,48.5586568 70.5925655,48.5586568 C70.5925655,48.5586568 72.0930253,47.1567364 74.1572092,47.1567364 C76.2213931,47.1567364 77.5353471,48.5586568 77.5353471,48.5586568 C77.5353471,48.5586568 76.5972092,49.8683273 74.1572092,49.8683273 Z M66.7011862,43.1466568 C66.0393011,43.1466568 65.5400828,43.7364977 65.6354391,44.3906341 C66.2398299,48.5558614 69.8353241,51.7552591 74.1824506,51.7552591 C78.5267724,51.7552591 82.123669,48.5558614 82.7280598,44.3906341 C82.8234161,43.7364977 82.3241977,43.1466568 81.6623126,43.1466568 L66.7011862,43.1466568 Z" id="Fill-57" fill="#11100D"></path>
                        <path d="M5.85978621,57.7331989 C5.85978621,57.7331989 22.3199701,70.6356193 42.2957172,57.7331989" id="Stroke-59" stroke="#11100D" stroke-width="2.54939996" stroke-linecap="round" stroke-linejoin="round"></path>
                        <path d="M9.04034023,59.7246807 L2.67951264,63.9346352" id="Stroke-61" stroke="#11100D" stroke-width="2.54939996" stroke-linecap="round" stroke-linejoin="round"></path>
                        <path d="M117.995455,56.624242 C117.995455,56.624242 108.736076,63.881242 95.6806736,62.066992" id="Stroke-63" stroke="#11100D" stroke-width="2.54939996" stroke-linecap="round" stroke-linejoin="round"></path>
                        <path d="M114.815182,58.615025 L121.176009,62.8249795" id="Stroke-65" stroke="#11100D" stroke-width="2.54939996" stroke-linecap="round" stroke-linejoin="round"></path>
                    </g>
                </g>
            </g>
        </g>
    </g>
</svg>
